packages/calcite-ui-icons/icons/mosaic-method-none-32.svg

<?xml version="1.0" encoding="UTF-8"?><svg id="icons" xmlns="http://www.w3.org/2000/svg" viewBox="0 0 32 32"><defs><style>.cls-1{fill:none;}</style></defs><path d="M22,2H1v17h21V2ZM2,8h4v3H2v-3ZM14,11h-7v-3h7v3ZM14,12v3h-7v-3h7ZM2,12h4v3H2v-3ZM2,18v-2h4v2H2ZM7,18v-2h7v2h-7ZM21,18h-6v-2h6v2ZM21,15h-6v-3h6v3ZM21,11h-6v-3h6v3ZM21,7H2V3h19v4ZM30.35352,25.35352l-4.85352,4.85352-4.85352-4.85352.70703-.70703,3.64648,3.64648V12h1v16.29297l3.64648-3.64648.70703.70703Z"/><rect class="cls-1" width="32" height="32"/></svg>

<svg xmlns="http://www.w3.org/2000/svg" viewBox="0 0 32 32"><path d="M22 2H1v17h21V2zM2 8h4v3H2V8zm12 3H7V8h7v3zm0 1v3H7v-3h7zM2 12h4v3H2v-3zm0 6v-2h4v2H2zm5 0v-2h7v2H7zm14 0h-6v-2h6v2zm0-3h-6v-3h6v3zm0-4h-6V8h6v3zm0-4H2V3h19v4zm9.354 18.354L25.5 30.207l-4.854-4.853.708-.708L25 28.293V12h1v16.293l3.646-3.647.708.708z"/><path fill="none" d="M0 0h32v32H0z"/></svg>
